workspaces/osm/styles/symbols/level_crossing.svg

<svg version="1.1" viewBox="0 0 7 7" xmlns="http://www.w3.org/2000/svg"><path id="a" d="m0 0h1.5c0.66667 0.66667 1.3333 1.3333 2 2 0.66667-0.66667 1.3333-1.3333 2-2h1.5v1.5l-2 2 2 2v1.5h-1.5l-2-2-2 2h-1.5v-1.5c0.66667-0.66667 1.3333-1.3333 2-2-0.66667-0.66667-1.3333-1.3333-2-2v-1.5z" fill="#fff"/><path id="b" d="m0.5 0.5v0.5l2.5 2.5-2.5 2.5v0.5h0.5l2.5-2.5 2.5 2.5h0.5v-0.5l-2.5-2.5 2.5-2.5v-0.5h-0.5l-2.5 2.5-2.5-2.5h-0.5z" fill="#4d4d4d"/></svg>

<?xml version="1.0" encoding="UTF-8"?>
<svg xmlns="http://www.w3.org/2000/svg" xmlns:xlink="http://www.w3.org/1999/xlink" width="100%" height="100%" viewBox="0 0 7 7">
  <path
    fill="#ffffff"
    d="m 0,0 1.5,0 2,2 2,-2 1.5,0 0,1.5 -2,2 2,2 L 7,7 5.5,7 3.5,5 1.5,7 0,7 0,5.5 2,3.5 0,1.5 z"
    id="halo" />
  <path
    fill="#4d4d4d"
    d="M 0.5,0.5 0.5,1 3,3.5 0.5,6 0.5,6.5 1,6.5 3.5,4 6,6.5 6.5,6.5 6.5,6 4,3.5 6.5,1 6.5,0.5 6,0.5 3.5,3 1,0.5 z"
    id="crossing" />
</svg>
